X: 49
T:Roscommon
T:Master Crowley's #2
T:Crowley's
F:http://blackrosetheband.googlepages.com/ABCTUNES.ABC May 2009
M:4/4
L:1/8
R:reel
K:Edor
"Em"EFGA B2GB|"D"AF~F2 dFAF|"Em"EFGA "(G)"B2dB|1 "D"AFDE "Em"FEE:|2 "D"A
FDE "Em"FEd2||
"Em"eB~B2 efge|"D"fa~a2 bfaf|"Em"eB~B2 efge|"D"fagf "(Bm)"efgf|
"Em"eB~B2 efge|"D"fa~a2 bgaf|"G"~g3e "D"~f3e|"G"dBAF "D"EFGA||
"Em"B2BA BcdB|"D"AF~F2 BFAF|"Em"EFGA B2dB|"D"AFDE "Em"FEED|
"Em"dBBA B2dB|"D"AF~F2 "(Bm)"BFAF|"Em"EFGA "D"B2dB|"(Bm)"AFDE "Em"FEED||

